static/assets/img/icons/theme/text/filter.svg

<svg height="24" viewBox="0 0 24 24" width="24" xmlns="http://www.w3.org/2000/svg"><g fill="none" fill-rule="evenodd"><path d="m0 0h24v24h-24z" opacity="0"/><path d="m5 4h14c.2761424 0 .5.22385763.5.5 0 .10818511-.0350889.21345191-.1.3l-5.4 7.2v8.190983c0 .2761424-.2238576.5-.5.5-.0776225 0-.1541791-.0180725-.2236068-.0527864l-3.2763932-1.6381966v-7l-5.4-7.2c-.16568542-.2209139-.1209139-.53431458.1-.7.08654809-.06491106.19181489-.1.3-.1z" fill="#000"/></g></svg>

<svg width="24px" height="24px" viewBox="0 0 24 24" version="1.1" xmlns="http://www.w3.org/2000/svg" xmlns:xlink="http://www.w3.org/1999/xlink">
    <title>Icon For Filter</title>
    <g stroke="none" stroke-width="1" fill="none" fill-rule="evenodd">
        <rect opacity="0" x="0" y="0" width="24" height="24"></rect>
        <path d="M5,4 L19,4 C19.2761424,4 19.5,4.22385763 19.5,4.5 C19.5,4.60818511 19.4649111,4.71345191 19.4,4.8 L14,12 L14,20.190983 C14,20.4671254 13.7761424,20.690983 13.5,20.690983 C13.4223775,20.690983 13.3458209,20.6729105 13.2763932,20.6381966 L10,19 L10,12 L4.6,4.8 C4.43431458,4.5790861 4.4790861,4.26568542 4.7,4.1 C4.78654809,4.03508894 4.89181489,4 5,4 Z" fill="#000000"></path>
    </g>
</svg>
